coreui/free/cil-eco.svg

<svg xmlns="http://www.w3.org/2000/svg" viewBox="0 0 512 512">
  <path fill="var(--ci-primary-color, currentColor)" d="M389.053,126.3A302.909,302.909,0,0,0,280.012,18.15L272,13.516l-8.012,4.634A301.084,301.084,0,0,0,113.4,279.042c0,3.445.06,6.944.177,10.4,1.592,46.856,19.511,86.283,51.82,114.018,24.724,21.225,56.438,34.182,90.607,37.273V496h32V240H256V408.528c-54.064-6.263-107.873-44.455-110.444-120.174-.106-3.095-.16-6.228-.16-9.312A270.286,270.286,0,0,1,272,50.673,270.286,270.286,0,0,1,398.6,279.042c0,3.084-.054,6.217-.16,9.313-2.056,60.573-36.907,97.127-78.444,112.536v33.867a156.188,156.188,0,0,0,58.607-31.3c32.309-27.735,50.228-67.162,51.82-114.017.117-3.456.177-6.955.177-10.4A300.948,300.948,0,0,0,389.053,126.3Z" class="ci-primary"/>
</svg>

<svg viewBox="0 0 512 512" xmlns="http://www.w3.org/2000/svg"><path d="M389.053 126.3l0-.001c-26.46-44.82-64.01-82.07-109.05-108.15l-8.02-4.64 -8.02 4.634v-.001c-93.22 53.79-150.64 153.26-150.588 260.89 0 3.44.06 6.94.17 10.4 1.59 46.85 19.51 86.28 51.82 114.01 24.72 21.22 56.43 34.18 90.6 37.27v55.26h32v-256h-32.01v168.52c-54.07-6.27-107.88-44.46-110.45-120.18 -.11-3.1-.16-6.23-.16-9.32h-.001c.19-92.82 47.99-179.04 126.6-228.37v0c78.6 49.33 126.4 135.55 126.6 228.369 0 3.08-.06 6.21-.16 9.31 -2.06 60.57-36.91 97.12-78.45 112.53v33.86 0c21.55-6.11 41.54-16.79 58.6-31.3 32.3-27.74 50.22-67.17 51.82-114.02 .11-3.46.17-6.96.17-10.4v0c.02-53.71-14.32-106.45-41.55-152.75Z"/></svg>
